<?xml version="1.0" encoding="UTF-8"?>
<map version="1.10" tiledversion="1.12.1" orientation="orthogonal" renderorder="right-down" width="16" height="10" tilewidth="600" tileheight="520" infinite="0" nextlayerid="8" nextobjectid="30">
 <editorsettings>
  <export target="sample_level_small.tmj" format="json"/>
 </editorsettings>
 <properties>
  <property name="boba_required" type="int" value="1"/>
  <property name="jelly_avail" type="int" value="5"/>
  <property name="jelly_required" type="int" value="3"/>
  <property name="milk_avail" type="int" value="5"/>
  <property name="milk_required" type="int" value="3"/>
  <property name="stun_num" type="int" value="2"/>
  <property name="time_1" type="int" value="60"/>
  <property name="time_2" type="int" value="90"/>
 </properties>
 <tileset firstgid="1" source="tiles.tsx"/>
 <layer id="1" name="Crates" width="16" height="10">
  <data encoding="csv">
0,0,0,0,0,0,0,0,0,0,0,0,0,0,0,0,
0,0,0,0,0,24,24,24,24,24,24,24,24,24,0,0,
0,0,0,0,0,24,0,24,24,20,24,24,0,24,0,0,
0,0,0,0,0,24,24,24,24,24,24,24,24,24,0,0,
0,0,0,0,0,0,0,0,0,0,0,0,0,0,0,0,
0,0,0,0,0,0,0,0,0,0,0,0,0,0,0,0,
0,0,24,24,24,24,24,24,24,24,24,0,0,0,0,0,
0,0,24,0,24,24,19,24,24,24,24,0,0,0,0,0,
0,0,24,24,24,24,24,24,24,24,24,0,0,0,0,0,
0,0,0,0,0,0,0,0,0,0,0,0,0,0,0,0
</data>
 </layer>
 <objectgroup id="5" name="Vents">
  <object id="22" gid="14" x="7800" y="4160" width="600" height="520">
   <properties>
    <property name="bug_type" value="attacker"/>
    <property name="first_spawn" type="int" value="12"/>
    <property name="spawn_delay" type="int" value="15"/>
   </properties>
  </object>
  <object id="29" gid="14" x="1200" y="5200" width="600" height="520">
   <properties>
    <property name="bug_type" propertytype="bug_type" value="blocker"/>
    <property name="first_spawn" type="int" value="10"/>
    <property name="spawn_delay" type="int" value="15"/>
   </properties>
  </object>
 </objectgroup>
 <objectgroup id="7" name="Helpers">
  <object id="20" x="600" y="1560">
   <point/>
  </object>
  <object id="24" gid="14" x="3600" y="1560" width="600" height="520">
   <properties>
    <property name="first_spawn" type="int" value="5"/>
    <property name="spawn_delay" type="int" value="15"/>
   </properties>
  </object>
  <object id="25" gid="14" x="7200" y="1560" width="600" height="520">
   <properties>
    <property name="first_spawn" type="int" value="11"/>
    <property name="spawn_delay" type="int" value="15"/>
   </properties>
  </object>
  <object id="26" gid="14" x="1800" y="4160" width="600" height="520">
   <properties>
    <property name="first_spawn" type="int" value="10"/>
    <property name="spawn_delay" type="int" value="15"/>
   </properties>
  </object>
  <object id="27" gid="14" x="5400" y="4160" width="600" height="520">
   <properties>
    <property name="first_spawn" type="int" value="15"/>
    <property name="spawn_delay" type="int" value="15"/>
   </properties>
  </object>
 </objectgroup>
</map>
