<?xml version="1.0" encoding="UTF-8"?>
<map version="1.10" tiledversion="1.12.1" orientation="orthogonal" renderorder="right-down" width="16" height="10" tilewidth="600" tileheight="520" infinite="0" nextlayerid="8" nextobjectid="35">
 <properties>
  <property name="boba_required" type="int" value="0"/>
  <property name="jelly_avail" type="int" value="10"/>
  <property name="jelly_required" type="int" value="7"/>
  <property name="milk_avail" type="int" value="10"/>
  <property name="milk_required" type="int" value="7"/>
  <property name="stun_num" type="int" value="0"/>
  <property name="time_1" type="int" value="0"/>
  <property name="time_2" type="int" value="0"/>
 </properties>
 <tileset firstgid="1" source="tiles.tsx"/>
 <tileset firstgid="65" source="more_tiles.tsx"/>
 <layer id="1" name="Crates" width="16" height="10">
  <data encoding="csv">
0,0,0,0,0,0,0,0,0,0,0,0,0,0,0,0,
0,0,0,0,0,0,0,0,0,0,0,0,0,0,0,0,
0,0,0,0,0,0,0,0,0,0,101,117,0,0,0,0,
0,0,0,0,0,0,0,0,0,25,102,0,0,0,0,0,
0,0,0,0,0,0,0,0,51,17,0,0,0,0,0,0,
0,0,0,0,0,0,0,25,20,0,0,0,0,0,0,0,
0,0,0,0,0,0,89,102,0,0,0,0,0,0,0,0,
0,0,0,0,0,119,17,0,0,0,0,0,0,0,0,0,
0,0,0,0,0,0,0,0,0,0,0,0,0,0,0,0,
0,0,0,0,0,0,0,0,0,0,0,0,0,0,0,0
</data>
 </layer>
 <objectgroup id="5" name="Vents">
  <object id="17" gid="14" x="1800" y="5200" width="600" height="520">
   <properties>
    <property name="first_spawn" type="int" value="10"/>
    <property name="spawn_delay" type="int" value="15"/>
   </properties>
  </object>
  <object id="34" gid="14" x="7800" y="520" width="600" height="520">
   <properties>
    <property name="first_spawn" type="int" value="5"/>
    <property name="spawn_delay" type="int" value="15"/>
   </properties>
  </object>
 </objectgroup>
 <objectgroup id="7" name="Helpers">
  <object id="15" x="600" y="1560">
   <point/>
  </object>
 </objectgroup>
</map>
