<?xml version="1.0" encoding="UTF-8"?>
<map version="1.10" tiledversion="1.12.1" orientation="orthogonal" renderorder="right-down" width="16" height="10" tilewidth="600" tileheight="520" infinite="0" nextlayerid="8" nextobjectid="22">
 <properties>
  <property name="boba_required" type="int" value="0"/>
  <property name="jelly_avail" type="int" value="8"/>
  <property name="jelly_required" type="int" value="5"/>
  <property name="milk_avail" type="int" value="8"/>
  <property name="milk_required" type="int" value="5"/>
  <property name="stun_num" type="int" value="3"/>
  <property name="time_1" type="int" value="75"/>
  <property name="time_2" type="int" value="100"/>
 </properties>
 <tileset firstgid="1" source="tiles.tsx"/>
 <tileset firstgid="65" source="more_tiles.tsx"/>
 <layer id="1" name="Crates" width="16" height="10">
  <data encoding="csv">
0,0,0,0,0,0,0,0,27,25,0,0,0,0,101,119,
0,0,0,0,0,0,0,0,25,33,0,0,0,0,0,0,
118,23,0,0,0,0,0,0,102,18,0,0,0,0,0,0,
0,0,0,0,0,0,0,0,0,0,0,0,0,0,0,0,
0,0,0,0,0,0,0,0,0,0,0,0,0,0,0,0,
0,0,0,0,0,0,0,0,0,0,0,0,0,0,0,0,
119,23,0,0,0,0,0,0,9,9,0,0,0,0,0,0,
0,0,0,0,0,0,0,0,25,25,0,0,0,0,0,0,
0,0,0,0,0,0,0,0,50,25,0,0,0,0,0,0,
0,0,0,0,0,0,0,0,20,17,0,0,0,0,117,0
</data>
 </layer>
 <objectgroup id="5" name="Vents">
  <object id="13" gid="15" x="2400" y="5200" width="600" height="520">
   <properties>
    <property name="bug_type" value="blocker"/>
    <property name="first_spawn" type="int" value="5"/>
    <property name="spawn_delay" type="int" value="15"/>
   </properties>
  </object>
  <object id="14" gid="14" x="8400" y="4680" width="600" height="520">
   <properties>
    <property name="bug_type" value="stealer"/>
    <property name="first_spawn" type="int" value="7"/>
    <property name="spawn_delay" type="int" value="10"/>
   </properties>
  </object>
  <object id="17" gid="14" x="8400" y="1040" width="600" height="520">
   <properties>
    <property name="bug_type" value="stealer"/>
    <property name="first_spawn" type="int" value="2"/>
    <property name="spawn_delay" type="int" value="10"/>
   </properties>
  </object>
  <object id="21" gid="15" x="7200" y="5200" width="600" height="520">
   <properties>
    <property name="bug_type" value="blocker"/>
    <property name="first_spawn" type="int" value="10"/>
    <property name="spawn_delay" type="int" value="15"/>
   </properties>
  </object>
 </objectgroup>
 <objectgroup id="7" name="Helpers">
  <object id="18" x="600" y="1040">
   <point/>
  </object>
 </objectgroup>
</map>
