<?xml version="1.0" encoding="UTF-8"?>
<map version="1.10" tiledversion="1.12.1" orientation="orthogonal" renderorder="right-down" width="16" height="10" tilewidth="600" tileheight="520" infinite="0" nextlayerid="9" nextobjectid="43">
 <properties>
  <property name="boba_required" type="int" value="0"/>
  <property name="jelly_avail" type="int" value="10"/>
  <property name="jelly_required" type="int" value="7"/>
  <property name="milk_avail" type="int" value="10"/>
  <property name="milk_required" type="int" value="7"/>
  <property name="stun_num" type="int" value="0"/>
  <property name="time_1" type="int" value="0"/>
  <property name="time_2" type="int" value="0"/>
 </properties>
 <tileset firstgid="1" source="tiles.tsx"/>
 <tileset firstgid="65" source="more_tiles.tsx"/>
 <objectgroup id="8" name="Portals">
  <object id="39" gid="60" x="1800" y="520" width="600" height="520">
   <properties>
    <property name="color" value="green"/>
    <property name="dir" value="right"/>
    <property name="pair_id" type="int" value="1"/>
    <property name="role" value="exit"/>
   </properties>
  </object>
  <object id="40" gid="62" x="1800" y="5200" width="600" height="520">
   <properties>
    <property name="color" value="pink"/>
    <property name="dir" value="right"/>
    <property name="pair_id" type="int" value="2"/>
    <property name="role" value="exit"/>
   </properties>
  </object>
  <object id="41" gid="61" x="600" y="4680" width="600" height="520">
   <properties>
    <property name="color" value="pink"/>
    <property name="dir" value="left"/>
    <property name="pair_id" type="int" value="2"/>
    <property name="role" value="entry"/>
   </properties>
  </object>
  <object id="42" gid="59" x="600" y="1040" width="600" height="520">
   <properties>
    <property name="color" value="green"/>
    <property name="dir" value="left"/>
    <property name="pair_id" type="int" value="1"/>
    <property name="role" value="entry"/>
   </properties>
  </object>
 </objectgroup>
 <layer id="1" name="Crates" width="16" height="10">
  <data encoding="csv">
0,0,17,0,0,0,0,0,0,0,0,0,0,0,0,0,
0,0,17,0,0,0,0,117,0,0,0,0,0,0,0,0,
0,0,0,119,17,17,17,0,20,23,17,17,102,17,0,0,
0,0,0,0,0,0,0,0,24,24,0,0,0,23,0,0,
0,0,0,0,0,0,0,0,0,0,0,0,0,0,0,0,
0,0,0,0,0,0,0,0,0,0,0,0,0,0,0,0,
0,0,0,0,0,0,0,0,24,24,0,0,0,23,0,0,
0,0,0,17,17,17,17,0,19,23,102,17,17,17,0,0,
0,0,17,0,0,0,0,102,0,0,0,0,0,0,0,0,
0,0,17,0,0,0,0,0,0,0,0,0,0,0,0,0
</data>
 </layer>
 <objectgroup id="5" name="Vents">
  <object id="34" gid="14" x="3000" y="5200" width="600" height="520">
   <properties>
    <property name="bug_type" propertytype="bug_type" value="attacker"/>
    <property name="first_spawn" type="int" value="5"/>
    <property name="spawn_delay" type="int" value="15"/>
   </properties>
  </object>
  <object id="37" gid="14" x="6600" y="2080" width="600" height="520">
   <properties>
    <property name="first_spawn" type="int" value="4"/>
    <property name="spawn_delay" type="int" value="10"/>
   </properties>
  </object>
  <object id="38" gid="14" x="6600" y="3640" width="600" height="520">
   <properties>
    <property name="first_spawn" type="int" value="9"/>
    <property name="spawn_delay" type="int" value="10"/>
   </properties>
  </object>
  <object id="35" gid="14" x="3000" y="520" width="600" height="520">
   <properties>
    <property name="bug_type" propertytype="bug_type" value="attacker"/>
    <property name="first_spawn" type="int" value="8"/>
    <property name="spawn_delay" type="int" value="15"/>
   </properties>
  </object>
 </objectgroup>
 <objectgroup id="7" name="Helpers">
  <object id="15" x="7800" y="520">
   <point/>
  </object>
  <object id="36" x="7800" y="4680">
   <point/>
  </object>
 </objectgroup>
</map>
