<?xml version="1.0" encoding="UTF-8"?>
<map version="1.10" tiledversion="1.12.1" orientation="orthogonal" renderorder="right-down" width="16" height="10" tilewidth="600" tileheight="520" infinite="0" nextlayerid="9" nextobjectid="55">
 <properties>
  <property name="boba_required" type="int" value="0"/>
  <property name="jelly_avail" type="int" value="10"/>
  <property name="jelly_required" type="int" value="7"/>
  <property name="milk_avail" type="int" value="10"/>
  <property name="milk_required" type="int" value="7"/>
  <property name="stun_num" type="int" value="0"/>
  <property name="time_1" type="int" value="0"/>
  <property name="time_2" type="int" value="0"/>
 </properties>
 <tileset firstgid="1" source="tiles.tsx"/>
 <tileset firstgid="65" source="more_tiles.tsx"/>
 <objectgroup id="8" name="Portals">
  <object id="39" gid="60" x="1800" y="5200" width="600" height="520">
   <properties>
    <property name="color" value="green"/>
    <property name="dir" value="right"/>
    <property name="pair_id" type="int" value="1"/>
    <property name="role" value="exit"/>
   </properties>
  </object>
  <object id="42" gid="59" x="600" y="4680" width="600" height="520">
   <properties>
    <property name="color" value="green"/>
    <property name="dir" value="left"/>
    <property name="pair_id" type="int" value="1"/>
    <property name="role" value="entry"/>
   </properties>
  </object>
  <object id="44" gid="63" x="1200" y="1040" width="600" height="520">
   <properties>
    <property name="color" value="red"/>
    <property name="dir" value="left"/>
    <property name="pair_id" type="int" value="4"/>
    <property name="role" value="entry"/>
   </properties>
  </object>
  <object id="53" gid="64" x="2400" y="520" width="600" height="520">
   <properties>
    <property name="color" value="red"/>
    <property name="dir" value="right"/>
    <property name="pair_id" type="int" value="4"/>
    <property name="role" value="exit"/>
   </properties>
  </object>
 </objectgroup>
 <layer id="1" name="Crates" width="16" height="10">
  <data encoding="csv">
0,0,117,26,0,0,0,0,0,0,27,0,0,0,0,118,
0,0,0,17,17,17,18,17,102,101,17,17,17,0,0,0,
0,0,0,0,0,0,24,24,24,24,24,24,0,0,0,0,
0,0,0,0,0,0,0,0,0,0,0,0,0,24,24,0,
0,0,0,0,0,0,0,0,0,0,0,0,0,24,0,0,
0,0,0,0,0,0,0,0,0,0,0,0,0,24,0,0,
0,0,0,0,0,0,0,0,0,0,0,0,0,24,24,0,
0,0,0,0,0,0,24,24,24,24,24,24,0,0,0,0,
0,0,33,17,119,17,17,102,102,17,49,82,17,0,0,0,
0,0,18,0,0,0,0,0,0,0,20,0,0,0,0,117
</data>
 </layer>
 <objectgroup id="5" name="Vents">
  <object id="37" gid="14" x="3600" y="520" width="600" height="520">
   <properties>
    <property name="first_spawn" type="int" value="4"/>
    <property name="spawn_delay" type="int" value="10"/>
   </properties>
  </object>
  <object id="38" gid="14" x="3600" y="5200" width="600" height="520">
   <properties>
    <property name="first_spawn" type="int" value="9"/>
    <property name="spawn_delay" type="int" value="10"/>
   </properties>
  </object>
  <object id="35" gid="14" x="5400" y="2600" width="600" height="520">
   <properties>
    <property name="bug_type" propertytype="bug_type" value="attacker"/>
    <property name="first_spawn" type="int" value="5"/>
    <property name="spawn_delay" type="int" value="13"/>
   </properties>
  </object>
  <object id="54" gid="14" x="7800" y="5200" width="600" height="520">
   <properties>
    <property name="bug_type" propertytype="bug_type" value="blocker"/>
    <property name="first_spawn" type="int" value="7"/>
    <property name="spawn_delay" type="int" value="17"/>
   </properties>
  </object>
 </objectgroup>
 <objectgroup id="7" name="Helpers">
  <object id="36" x="2400" y="2600">
   <point/>
  </object>
 </objectgroup>
</map>
