<?xml version="1.0" encoding="UTF-8"?>
<map version="1.10" tiledversion="1.12.1" orientation="orthogonal" renderorder="right-down" width="16" height="10" tilewidth="600" tileheight="520" infinite="0" nextlayerid="9" nextobjectid="54">
 <properties>
  <property name="boba_required" type="int" value="1"/>
  <property name="jelly_avail" type="int" value="4"/>
  <property name="jelly_required" type="int" value="3"/>
  <property name="milk_avail" type="int" value="4"/>
  <property name="milk_required" type="int" value="3"/>
  <property name="stun_num" type="int" value="2"/>
  <property name="time_1" type="int" value="65"/>
  <property name="time_2" type="int" value="85"/>
 </properties>
 <tileset firstgid="1" source="tiles.tsx"/>
 <tileset firstgid="65" source="more_tiles.tsx"/>
 <objectgroup id="8" name="Portals">
  <object id="46" gid="57" x="1220" y="3124" width="600" height="520">
   <properties>
    <property name="color" value="blue"/>
    <property name="dir" value="left"/>
    <property name="pair_id" type="int" value="4"/>
    <property name="role" value="entry"/>
   </properties>
  </object>
  <object id="48" gid="61" x="1211.03" y="1040" width="600" height="520">
   <properties>
    <property name="color" value="pink"/>
    <property name="dir" value="left"/>
    <property name="pair_id" type="int" value="2"/>
    <property name="role" value="entry"/>
   </properties>
  </object>
  <object id="49" gid="63" x="1212" y="4684" width="600" height="520">
   <properties>
    <property name="color" value="red"/>
    <property name="dir" value="left"/>
    <property name="pair_id" type="int" value="3"/>
    <property name="role" value="entry"/>
   </properties>
  </object>
  <object id="51" gid="58" x="2401.94" y="3123.15" width="600" height="520">
   <properties>
    <property name="color" value="blue"/>
    <property name="dir" value="right"/>
    <property name="pair_id" type="int" value="4"/>
    <property name="role" value="exit"/>
   </properties>
  </object>
  <object id="52" gid="62" x="2388" y="1036" width="600" height="520">
   <properties>
    <property name="color" value="pink"/>
    <property name="dir" value="right"/>
    <property name="pair_id" type="int" value="2"/>
    <property name="role" value="exit"/>
   </properties>
  </object>
  <object id="53" gid="64" x="2388" y="4692" width="600" height="520">
   <properties>
    <property name="color" value="red"/>
    <property name="dir" value="right"/>
    <property name="pair_id" type="int" value="3"/>
    <property name="role" value="exit"/>
   </properties>
  </object>
 </objectgroup>
 <layer id="1" name="Crates" width="16" height="10">
  <data encoding="csv">
0,0,0,25,0,0,0,0,0,0,0,0,117,117,0,102,
0,0,0,25,0,0,0,0,24,24,24,24,19,0,0,0,
0,0,0,25,0,0,0,0,0,0,0,24,24,0,0,0,
0,0,0,26,0,0,0,0,0,0,0,0,0,0,0,0,
0,0,0,25,0,0,0,0,0,0,0,0,0,0,0,0,
0,0,0,25,0,0,0,0,0,0,0,0,0,0,0,0,
0,0,0,25,0,0,0,0,0,0,0,0,0,0,0,0,
0,0,0,25,0,0,0,0,0,0,0,24,24,0,0,0,
0,0,0,25,0,0,0,0,24,24,24,24,20,0,0,0,
0,0,0,18,0,0,0,0,0,0,0,0,101,102,0,0
</data>
 </layer>
 <objectgroup id="5" name="Vents">
  <object id="17" gid="14" x="4206.49" y="4681.73" width="600" height="520">
   <properties>
    <property name="first_spawn" type="int" value="5"/>
    <property name="spawn_delay" type="int" value="14"/>
   </properties>
  </object>
  <object id="18" gid="14" x="4203.49" y="1042.88" width="600" height="520">
   <properties>
    <property name="first_spawn" type="int" value="12"/>
    <property name="spawn_delay" type="int" value="14"/>
   </properties>
  </object>
  <object id="35" gid="14" x="5407.92" y="3081.64" width="600" height="520">
   <properties>
    <property name="bug_type" propertytype="bug_type" value="attacker"/>
    <property name="first_spawn" type="int" value="5"/>
    <property name="spawn_delay" type="int" value="18"/>
   </properties>
  </object>
 </objectgroup>
 <objectgroup id="7" name="Helpers">
  <object id="34" x="2998.06" y="2600.85">
   <point/>
  </object>
 </objectgroup>
</map>
